X: 5518
T: Burn Deviot, The
R: hornpipe
M: 4/4
K: Gmajor
B>c|(3d^cd b>f a>gd>B|c>GE>G B2A>G|F>GA>B d>Bg>B|A>df>e d>cB>c|
(3d^cd b>f a>gd>B|c>GE>G B2A>G|F>GA>B d>B (3cAF|G2B2 G2:|
|:A>B|(3cBc a>g b2a>f|(3gag B>e d2B>G|F>dE>c D>BA>G|E>GA>B d>cA>B|
(3cBc a>g b2a>f|(3gag B>e d2B>G|F>dE>c D>BA>F|G2B2 G2:|

